contributed-vectors/pumb_online.svg

<?xml version="1.0" encoding="UTF-8" standalone="no"?>
<svg
   width="176"
   height="176"
   viewBox="0 0 176 176"
   fill="none"
   version="1.1"
   id="svg10"
   sodipodi:docname="pumb_online.svg"
   xml:space="preserve"
   inkscape:export-filename="pumb_online.png"
   inkscape:export-xdpi="96"
   inkscape:export-ydpi="96"
   inkscape:version="1.2 (dc2aedaf03, 2022-05-15)"
   xmlns:inkscape="http://www.inkscape.org/namespaces/inkscape"
   xmlns:sodipodi="http://sodipodi.sourceforge.net/DTD/sodipodi-0.dtd"
   xmlns="http://www.w3.org/2000/svg"
   xmlns:svg="http://www.w3.org/2000/svg"><defs
     id="defs14" /><sodipodi:namedview
     id="namedview12"
     pagecolor="#505050"
     bordercolor="#eeeeee"
     borderopacity="1"
     inkscape:showpageshadow="0"
     inkscape:pageopacity="0"
     inkscape:pagecheckerboard="0"
     inkscape:deskcolor="#505050"
     showgrid="false"
     inkscape:zoom="1.8963318"
     inkscape:cx="83.582419"
     inkscape:cy="49.04205"
     inkscape:window-width="1884"
     inkscape:window-height="1052"
     inkscape:window-x="36"
     inkscape:window-y="0"
     inkscape:window-maximized="1"
     inkscape:current-layer="svg10" /><path
     fill-rule="evenodd"
     clip-rule="evenodd"
     d="M88.2551 0C136.719 0 176 39.9059 176 87.9975C176 136.601 136.209 175.995 88.2551 175.995C39.7913 176.507 0 137.112 0 87.9975C0 39.9059 39.7913 0 88.2551 0Z"
     fill="#DC505E"
     id="path2"
     style="fill:#ff837d;fill-opacity:1" /><g
     id="g610"
     transform="matrix(0.79566119,0,0,0.79566119,17.981736,16.779047)"><path
       fill-rule="evenodd"
       clip-rule="evenodd"
       d="m 155.084,57.3007 h 1.021 c -0.511,2.5581 -1.531,4.0929 -3.061,5.6278 -2.041,1.0232 -4.081,1.5348 -7.653,1.5348 h -3.06 c -11.224,-0.5116 -13.774,11.2555 -12.754,20.4645 1.02,5.6278 3.061,11.2555 6.122,15.3482 3.061,3.07 7.142,5.116 11.223,2.047 3.061,-2.5584 4.081,-8.6977 4.081,-11.7674 0,-6.1394 -2.041,-15.3484 -9.693,-15.3484 -2.04,0 -4.081,1.0232 -6.121,3.0697 -1.021,1.5348 -1.531,4.6045 -1.531,8.1858 h -1.53 c -1.021,-7.1626 2.55,-13.302 10.203,-13.8136 9.182,0 14.794,7.1626 14.794,16.3717 0,9.209 -5.612,17.9062 -14.794,17.9062 -5.102,0 -8.673,-1.535 -11.734,-5.628 -3.061,-3.5808 -4.081,-9.2086 -4.081,-16.3712 0,-9.209 1.531,-14.8367 4.081,-18.9297 3.061,-4.0929 6.632,-6.1393 12.244,-6.1393 h 4.591 c 3.061,0.5116 5.102,0 6.122,-0.5116 0.51,-0.5116 1.53,-1.0233 1.53,-2.0465 z"
       fill="#ffffff"
       id="path4" /><path
       fill-rule="evenodd"
       clip-rule="evenodd"
       d="m 90.806,72.6491 11.223,25.0691 10.203,-23.0226 1.02,-2.0465 h 8.673 v 1.0233 h -1.02 c -1.021,0 -2.551,1.0232 -2.551,2.558 v 18.9297 7.6739 c 0,1.535 1.02,2.558 2.551,2.558 h 1.02 v 0.512 h -5.612 -6.121 v -1.023 h 1.02 c 1.02,0 2.551,-1.023 2.551,-2.558 V 94.6485 77.7653 l -12.754,28.1387 h -0.51 L 88.2553,77.2536 v 25.0694 c 0,1.535 1.0203,2.558 2.0406,2.558 h 0.5101 v 1.023 h -5.6116 -3.0608 v -1.023 h 1.0203 c 1.0203,0 2.5507,-1.023 2.5507,-2.558 V 76.2304 c 0,-1.5348 -0.5102,-2.558 -2.5507,-2.558 -1.5305,0 -3.0609,1.5348 -4.0812,3.5812 L 67.3394,103.346 c -1.0203,2.046 -2.5508,3.07 -4.5913,3.07 l -2.5508,-0.512 -0.5101,-3.581 c 1.0203,1.023 2.0406,1.535 2.5507,1.535 1.5305,0.511 2.5507,0 3.0609,-1.024 L 66.8292,99.7646 56.1162,77.7653 C 55.0959,75.7188 54.0756,74.184 52.5452,74.184 v -1.0233 h 6.1217 4.5913 v 1.0233 h -1.0203 c -1.0203,0 -1.0203,1.5348 -0.5101,2.558 l 8.1623,17.3949 7.6522,-16.3716 c 1.0203,-1.5349 0,-3.0697 -1.0203,-3.0697 v -1.0232 h 14.284 z"
       fill="#ffffff"
       id="path6" /><path
       fill-rule="evenodd"
       clip-rule="evenodd"
       d="M 42.3419,95.1601 V 76.2304 75.2072 H 27.0376 v 1.5348 18.9297 7.6743 c 0,1.535 1.0203,2.558 2.0405,2.558 h 1.0203 -5.6116 -5.6116 v -1.023 h 0.5102 c 1.0203,0 2.0406,-1.023 2.0406,-2.558 V 94.6485 75.7188 c 0,-1.5348 -1.0203,-2.5581 -2.0406,-2.5581 h -0.5102 v -1.0232 h 5.6116 1.0203 5.1015 8.6724 4.0812 1.5304 5.6116 v 1.0232 h -0.5101 c -1.0203,0 -2.0406,1.0233 -2.0406,2.5581 v 18.9297 7.6745 c 0,1.535 1.0203,2.558 2.0406,2.558 h 1.0203 v 1.023 H 45.4028 39.281 v -1.023 h 1.0203 c 1.0203,0 2.0406,-1.023 2.0406,-2.558 z"
       fill="#ffffff"
       id="path8" /></g><style
     type="text/css"
     id="style853">
	.st0{fill:#FFFFFF;}
</style><style
     type="text/css"
     id="style853-9">
	.st0{fill:#FFFFFF;}
</style><style
     type="text/css"
     id="style853-3">
	.st0{fill:#FFFFFF;}
</style><g
     style="fill:none"
     id="g630"
     transform="translate(3.7560937,-194.52141)"><path
       fill-rule="evenodd"
       clip-rule="evenodd"
       d="M 88.2551,0 C 136.719,0 176,39.9059 176,87.9975 176,136.601 136.209,175.995 88.2551,175.995 39.7913,176.507 0,137.112 0,87.9975 0,39.9059 39.7913,0 88.2551,0 Z"
       fill="#dc505e"
       id="path612" /><path
       fill-rule="evenodd"
       clip-rule="evenodd"
       d="m 155.084,57.3007 h 1.021 c -0.511,2.5581 -1.531,4.0929 -3.061,5.6278 -2.041,1.0232 -4.081,1.5348 -7.653,1.5348 h -3.06 c -11.224,-0.5116 -13.774,11.2555 -12.754,20.4645 1.02,5.6278 3.061,11.2555 6.122,15.3482 3.061,3.07 7.142,5.116 11.223,2.047 3.061,-2.5584 4.081,-8.6977 4.081,-11.7674 0,-6.1394 -2.041,-15.3484 -9.693,-15.3484 -2.04,0 -4.081,1.0232 -6.121,3.0697 -1.021,1.5348 -1.531,4.6045 -1.531,8.1858 h -1.53 c -1.021,-7.1626 2.55,-13.302 10.203,-13.8136 9.182,0 14.794,7.1626 14.794,16.3717 0,9.209 -5.612,17.9062 -14.794,17.9062 -5.102,0 -8.673,-1.535 -11.734,-5.628 -3.061,-3.5808 -4.081,-9.2086 -4.081,-16.3712 0,-9.209 1.531,-14.8367 4.081,-18.9297 3.061,-4.0929 6.632,-6.1393 12.244,-6.1393 h 4.591 c 3.061,0.5116 5.102,0 6.122,-0.5116 0.51,-0.5116 1.53,-1.0233 1.53,-2.0465 z"
       fill="#ffffff"
       id="path614" /><path
       fill-rule="evenodd"
       clip-rule="evenodd"
       d="m 90.806,72.6491 11.223,25.0691 10.203,-23.0226 1.02,-2.0465 h 8.673 v 1.0233 h -1.02 c -1.021,0 -2.551,1.0232 -2.551,2.558 v 18.9297 7.6739 c 0,1.535 1.02,2.558 2.551,2.558 h 1.02 v 0.512 h -5.612 -6.121 v -1.023 h 1.02 c 1.02,0 2.551,-1.023 2.551,-2.558 V 94.6485 77.7653 l -12.754,28.1387 h -0.51 L 88.2553,77.2536 v 25.0694 c 0,1.535 1.0203,2.558 2.0406,2.558 h 0.5101 v 1.023 h -5.6116 -3.0608 v -1.023 h 1.0203 c 1.0203,0 2.5507,-1.023 2.5507,-2.558 V 76.2304 c 0,-1.5348 -0.5102,-2.558 -2.5507,-2.558 -1.5305,0 -3.0609,1.5348 -4.0812,3.5812 L 67.3394,103.346 c -1.0203,2.046 -2.5508,3.07 -4.5913,3.07 l -2.5508,-0.512 -0.5101,-3.581 c 1.0203,1.023 2.0406,1.535 2.5507,1.535 1.5305,0.511 2.5507,0 3.0609,-1.024 L 66.8292,99.7646 56.1162,77.7653 C 55.0959,75.7188 54.0756,74.184 52.5452,74.184 v -1.0233 h 6.1217 4.5913 v 1.0233 h -1.0203 c -1.0203,0 -1.0203,1.5348 -0.5101,2.558 l 8.1623,17.3949 7.6522,-16.3716 c 1.0203,-1.5349 0,-3.0697 -1.0203,-3.0697 v -1.0232 h 14.284 z"
       fill="#ffffff"
       id="path616" /><path
       fill-rule="evenodd"
       clip-rule="evenodd"
       d="M 42.3419,95.1601 V 76.2304 75.2072 H 27.0376 v 1.5348 18.9297 7.6743 c 0,1.535 1.0203,2.558 2.0405,2.558 h 1.0203 -5.6116 -5.6116 v -1.023 h 0.5102 c 1.0203,0 2.0406,-1.023 2.0406,-2.558 V 94.6485 75.7188 c 0,-1.5348 -1.0203,-2.5581 -2.0406,-2.5581 h -0.5102 v -1.0232 h 5.6116 1.0203 5.1015 8.6724 4.0812 1.5304 5.6116 v 1.0232 h -0.5101 c -1.0203,0 -2.0406,1.0233 -2.0406,2.5581 v 18.9297 7.6745 c 0,1.535 1.0203,2.558 2.0406,2.558 h 1.0203 v 1.023 H 45.4028 39.281 v -1.023 h 1.0203 c 1.0203,0 2.0406,-1.023 2.0406,-2.558 z"
       fill="#ffffff"
       id="path618" /></g></svg>

<svg width="176" height="176" viewBox="0 0 176 176" fill="none" xmlns="http://www.w3.org/2000/svg">
<path fill-rule="evenodd" clip-rule="evenodd" d="M88.2551 0C136.719 0 176 39.9059 176 87.9975C176 136.601 136.209 175.995 88.2551 175.995C39.7913 176.507 0 137.112 0 87.9975C0 39.9059 39.7913 0 88.2551 0Z" fill="#DC505E"/>
<path fill-rule="evenodd" clip-rule="evenodd" d="M155.084 57.3007H156.105C155.594 59.8588 154.574 61.3936 153.044 62.9285C151.003 63.9517 148.963 64.4633 145.391 64.4633H142.331C131.107 63.9517 128.557 75.7188 129.577 84.9278C130.597 90.5556 132.638 96.1833 135.699 100.276C138.76 103.346 142.841 105.392 146.922 102.323C149.983 99.7646 151.003 93.6253 151.003 90.5556C151.003 84.4162 148.962 75.2072 141.31 75.2072C139.27 75.2072 137.229 76.2304 135.189 78.2769C134.168 79.8117 133.658 82.8814 133.658 86.4627H132.128C131.107 79.3001 134.678 73.1607 142.331 72.6491C151.513 72.6491 157.125 79.8117 157.125 89.0208C157.125 98.2298 151.513 106.927 142.331 106.927C137.229 106.927 133.658 105.392 130.597 101.299C127.536 97.7182 126.516 92.0904 126.516 84.9278C126.516 75.7188 128.047 70.0911 130.597 65.9981C133.658 61.9052 137.229 59.8588 142.841 59.8588H147.432C150.493 60.3704 152.534 59.8588 153.554 59.3472C154.064 58.8356 155.084 58.3239 155.084 57.3007Z" fill="white"/>
<path fill-rule="evenodd" clip-rule="evenodd" d="M90.806 72.6491L102.029 97.7182L112.232 74.6956L113.252 72.6491H121.925V73.6724H120.905C119.884 73.6724 118.354 74.6956 118.354 76.2304V95.1601V102.834C118.354 104.369 119.374 105.392 120.905 105.392H121.925V105.904H116.313H110.192V104.881H111.212C112.232 104.881 113.763 103.858 113.763 102.323V94.6485V77.7653L101.009 105.904H100.499L88.2553 77.2536V102.323C88.2553 103.858 89.2756 104.881 90.2959 104.881H90.806V105.904H85.1944H82.1336V104.881H83.1539C84.1742 104.881 85.7046 103.858 85.7046 102.323V76.2304C85.7046 74.6956 85.1944 73.6724 83.1539 73.6724C81.6234 73.6724 80.093 75.2072 79.0727 77.2536L67.3394 103.346C66.3191 105.392 64.7886 106.416 62.7481 106.416L60.1973 105.904L59.6872 102.323C60.7075 103.346 61.7278 103.858 62.2379 103.858C63.7684 104.369 64.7886 103.858 65.2988 102.834L66.8292 99.7646L56.1162 77.7653C55.0959 75.7188 54.0756 74.184 52.5452 74.184V73.1607H58.6669H63.2582V74.184H62.2379C61.2176 74.184 61.2176 75.7188 61.7278 76.742L69.8901 94.1369L77.5423 77.7653C78.5626 76.2304 77.5423 74.6956 76.522 74.6956V73.6724H90.806V72.6491Z" fill="white"/>
<path fill-rule="evenodd" clip-rule="evenodd" d="M42.3419 95.1601V76.2304V75.2072H27.0376V76.742V95.6717V103.346C27.0376 104.881 28.0579 105.904 29.0781 105.904H30.0984H24.4868H18.8752V104.881H19.3854C20.4057 104.881 21.426 103.858 21.426 102.323V94.6485V75.7188C21.426 74.184 20.4057 73.1607 19.3854 73.1607H18.8752V72.1375H24.4868H25.5071H30.6086H39.281H43.3622H44.8926H50.5042V73.1607H49.9941C48.9738 73.1607 47.9535 74.184 47.9535 75.7188V94.6485V102.323C47.9535 103.858 48.9738 104.881 49.9941 104.881H51.0144V105.904H45.4028H39.281V104.881H40.3013C41.3216 104.881 42.3419 103.858 42.3419 102.323V95.1601Z" fill="white"/>
</svg>
